X:76
T:High Road to Dublin* (sj)
B:NFID.061b ("untitled slip jig")
076high_rd
S:JD
L:1/8
M:9/8
R:slip jig
Q:300
K:Em
G2A Bee ege|GFG BGB AFD|G2A Bee Bee|d^cd A2G FED:|
d^cd fdf ecA|d^cd fdf gec|d2e f^ga e^cA|B^cd A/B/AG FED:|

%%%

